svgs/sharp-light/mug-hot.svg

<svg xmlns="http://www.w3.org/2000/svg" viewBox="0 0 512 512"><!--! Font Awesome Pro 6.6.0 by @fontawesome - https://fontawesome.com License - https://fontawesome.com/license (Commercial License) Copyright 2024 Fonticons, Inc. --><path d="M96 0l0 16c0 16.2 6.5 31.8 17.9 43.3l18.7 18.7C150.2 95.5 160 119.3 160 144l0 16-32 0 0-16c0-16.2-6.5-31.8-17.9-43.3L91.3 81.9C73.8 64.5 64 40.7 64 16L64 0 96 0zM32 224l0 256 320 0 0-256-16 0L32 224zm352 0l0 160 16 0c44.2 0 80-35.8 80-80s-35.8-80-80-80l-16 0zm0 192l0 64 0 32-32 0L32 512 0 512l0-32L0 224l0-32 32 0 304 0 16 0 32 0 16 0c61.9 0 112 50.1 112 112s-50.1 112-112 112l-16 0zM224 16c0 16.2 6.5 31.8 17.9 43.3l18.7 18.7C278.2 95.5 288 119.3 288 144l0 16-32 0 0-16c0-16.2-6.5-31.8-17.9-43.3L219.3 81.9C201.8 64.5 192 40.7 192 16l0-16 32 0 0 16z"/></svg>

<svg xmlns="http://www.w3.org/2000/svg" viewBox="0 0 512 512"><!--! Font Awesome Pro 6.4.0 by @fontawesome - https://fontawesome.com License - https://fontawesome.com/license (Commercial License) Copyright 2023 Fonticons, Inc. --><path d="M96 0V16c0 16.2 6.5 31.8 17.9 43.3l18.7 18.7C150.2 95.5 160 119.3 160 144v16H128V144c0-16.2-6.5-31.8-17.9-43.3L91.3 81.9C73.8 64.5 64 40.7 64 16V0H96zM32 224V480H352V224H336 32zm352 0V384h16c44.2 0 80-35.8 80-80s-35.8-80-80-80H384zm0 192v64 32H352 32 0V480 224 192H32 336h16 32 16c61.9 0 112 50.1 112 112s-50.1 112-112 112H384zM224 16c0 16.2 6.5 31.8 17.9 43.3l18.7 18.7C278.2 95.5 288 119.3 288 144v16H256V144c0-16.2-6.5-31.8-17.9-43.3L219.3 81.9C201.8 64.5 192 40.7 192 16V0h32V16z"/></svg>
